src/OnboardingSPA/static/icons/education-white.svg

<svg fill="none" height="16" viewBox="0 0 24 16" width="24" xmlns="http://www.w3.org/2000/svg"><g fill="#fff"><path clip-rule="evenodd" d="m22.1789 2.97783-1.0293-.03909v-.72707c0-.35572-.2396-.67625-.5814-.78179-2.9307-.899067-6.1089-.36745-8.5682 1.40332-2.45929-1.76686-5.6375-2.298478-8.56821-1.39941-.34572.10554-.58143.42216-.58143.78179v.72707l-1.01357.03909c-.45965 0-.83679.36744-.83679.81697v10.46429c0 .2658.13357.5199.3575.6724.14143.0977.30643.1446.47143.1446.09428 0 .18857-.0156.27893-.0469 2.76964-.9694 6.85535-1.3955 9.73504-.1642l.1571.0665.1571-.0665c2.8797-1.2352 6.9654-.8091 9.7311.1603.2514.0899.5343.0547.7543-.0938.2239-.1525.3575-.4027.3575-.6724v-10.4682c0-.44953-.3732-.81697-.8211-.81697zm-1.8425-.81698s.0354.02737.0354.05082v10.07343c0 .0234-.0157.0391-.0589.0508-2.6911-.7466-5.6022-.2893-7.92 1.2079v-10.04217c2.2707-1.66913 5.225-2.16948 7.9435-1.33687zm-16.6689 0c-.01964.00391-.03536.02737-.03536.05082l.00393.00391v10.07342c0 .0207.01227.0323.02054.0401l.00303.0029c.85643-.2345 1.73643-.3479 2.60857-.3479 1.88965 0 3.75569.5355 5.34289 1.5597v-10.04608c-2.27074-1.66913-5.22503-2.16948-7.9436-1.33687zm-1.82286 12.14905h-.03928s-.02357-.0234-.02357-.0508v-10.4643c0-.03127.02357-.05472.07071-.05472l.99786-.03909v8.58411c0 .258.12178.4964.33393.6528.20821.1524.47142.2033.71892.1329 2.035-.5629 4.2075-.3792 6.10109.473-2.7343-.4769-5.87716-.0391-8.15966.7622zm20.34996-.0039c.0118-.0078.0236-.0234.0236-.0469v-10.46039c0-.03127-.0236-.05472-.055-.05472l-1.0136-.03909v8.5841c0 .258-.1217.4964-.3339.6528-.2082.1524-.4675.2033-.7189.1329-2.035-.5629-4.2075-.3792-6.1011.473 2.7343-.4769 5.8772-.0352 8.1597.7583z" fill-rule="evenodd"/><path d="m21.1496 2.93874h-.1v.09627l.0962.00366zm1.0293.03909-.0038.1h.0038zm-1.6107-1.54795.0295-.09555-.0002-.00006zm-8.5682 1.40332-.0583.08121.0584.04197.0583-.04203zm-8.56821-1.39941.02919.09564.00013-.00004zm-.58143 1.50886.00385.09992.09615-.0037v-.09622zm-1.01357.03909v.10007l.00385-.00015zm-.47929 11.95366.05685-.0823-.00057-.0004zm.75036.0977.0327.0945.00033-.0001zm9.73504-.1642-.0394.092.0004.0001zm.1571.0665-.0389.0921.0389.0164.0389-.0164zm.1571-.0665.039.0921.0005-.0002zm9.7311.1603.0337-.0942-.0006-.0002zm.7543-.0938.056.0828.0003-.0002zm-2.3061-12.77455.0612-.07908-.1612-.12476v.20384zm-.0235 10.17505-.0268.0964.0265.0073.0265-.0072zm-7.92 1.2079h-.1v.1836l.1542-.0996zm0-10.04217-.0593-.08057-.0407.02997v.0506zm7.9435-1.33687-.0293.09562.1293.03959v-.13521zm-16.70426.04691h-.1v.04157l.02947.02932zm.03536-.05082.01962.09858.00966-.00296zm-.03143.05473h.1v-.04157l-.02947-.02932zm.02054 10.11352.06921-.0722-.0006-.0006zm.00303.0029-.0692.0722.04093.0392.05469-.015zm7.95146 1.2118-.0542.084.1542.0995v-.1835zm0-10.04608h.1v-.0506l-.0408-.02997zm-9.80574 10.81218-.07054.0709.02926.0291h.04128zm.03928 0v.1h.1v-.1zm.00786-10.56982v.10007l.00391-.00015zm.99786-.03909h.1v-.104l-.10392.00407zm.33393 9.23691-.05934.0805.00026.0002zm.71892.1329-.02666-.0964-.00068.0002zm6.10109.473-.0172.0985.0582-.1897zm-8.15966.7622-.03312-.0943-.06688.0234v.0709zm20.34996 0v.1h.0302l.0251-.0166zm-.0314-10.56201-.0038.1h.0038zm-1.0136-.03909.0039-.09993-.1039-.004v.10393zm-.3339 9.2369.0591.0807.0002-.0002zm-.7189.1329.0269-.0963-.0003-.0001zm-6.1011.473-.041-.0912.0582.1897zm8.1597.7583-.0329.0945.016.0055h.0169zm-1.0096-11.26733 1.0293.03909.0076-.19986-1.0293-.03909zm-.0962-.827v.72707h.2v-.72707zm-.5109-.68625c.3006.09283.5109.37515.5109.68625h.2c0-.40033-.2689-.75908-.6519-.87734zm-8.4803 1.38893c2.4339-1.75249 5.5797-2.278758 8.4805-1.38887l.0586-.19121c-2.9606-.908236-6.1713-.37126-8.6559 1.41777zm-8.59729-1.38496c2.90081-.889891 6.0466-.36363 8.48059 1.38502l.1166-.16243c-2.48458-1.785057-5.69522-2.322035-8.65584-1.4138zm-.51075.68619c0-.31525.2066-.59334.51062-.68615l-.05839-.19129c-.38741.11827-.65223.47344-.65223.87744zm0 .72707v-.72707h-.2v.72707zm-1.10972.13901 1.01357-.03909-.00771-.19985-1.01357.03909zm-.74064.71705c0-.392.33004-.71697.73679-.71697v-.2c-.51254 0-.93679.40991-.93679.91697zm0 10.46429v-10.46429h-.2v10.46429zm.31378.5897c-.19669-.1339-.31378-.3571-.31378-.5897h-.2c0 .2991.15005.584.40122.755zm.41515.1273c-.14611 0-.29099-.0415-.41458-.1269l-.1137.1645c.15927.1101.34439.1624.52828.1624zm.24622-.0414c-.07976.0276-.16299.0414-.24622.0414v.2c.10534 0 .21068-.0175.31163-.0524zm9.80705-.1616c-1.4581-.6235-3.21571-.8254-4.95236-.7512-1.73741.0742-3.46094.425-4.85502.9129l.06607.1888c1.37557-.4815 3.07972-.8285 4.79748-.9019 1.71853-.0734 3.44363.1274 4.86513.7353zm.1567.0663-.1571-.0665-.0779.1842.1572.0665zm.0793-.0665-.1571.0665.0778.1842.1572-.0665zm9.8031.158c-1.3921-.488-3.1147-.8387-4.8517-.9124-1.7361-.0737-3.4937.1291-4.9519.7546l.0789.1838c1.4215-.6097 3.1465-.8115 4.8646-.7386 1.7172.0729 3.4204.4199 4.7939.9014zm.6652-.0823c-.1934.1306-.4429.1618-.6646.0825l-.0674.1883c.2812.1006.5974.0614.844-.1051zm.3135-.5895c0 .2363-.1169.4557-.3138.5897l.1126.1653c.2509-.1708.4012-.4518.4012-.755zm0-10.4682v10.4682h.2v-10.4682zm-.7211-.71697c.3934 0 .7211.32345.7211.71697h.2c0-.50554-.4188-.91697-.9211-.91697zm-1.7071-.86616c0-.02992-.0108-.05349-.0185-.06705-.0082-.01449-.0177-.02617-.025-.03423-.0076-.00839-.0149-.01518-.0201-.0198-.0027-.00237-.005-.00432-.0068-.00579-.0009-.00074-.0017-.00137-.0023-.00187-.0003-.00025-.0006-.00048-.0008-.00067-.0002-.0001-.0003-.00019-.0004-.00027 0-.00004-.0001-.00008-.0001-.00011-.0001-.00002-.0001-.00004-.0001-.00006 0-.00001 0-.00002 0-.00002-.0001-.00002-.0001-.00003-.0613.07905-.0612.07909-.0612.07907-.0612.07906 0 0 0-.00001 0-.00002-.0001-.00002-.0001-.00003-.0001-.00005 0-.00003-.0001-.00006-.0001-.00008-.0001-.00006-.0001-.00011-.0002-.00015-.0001-.00009-.0002-.00016-.0003-.0002-.0001-.0001-.0001-.00011 0-.00006.0001.00012.0006.00049.0012.00105.0014.00125.003.00276.0042.00415.0016.00171.0009.00127-.0007-.0015-.001-.00184-.0074-.01319-.0074-.03138zm0 10.07343v-10.07343h-.2v10.07343zm-.1327.1473c.0269-.0073.0594-.0192.0859-.0428.032-.0285.0468-.066.0468-.1045h-.2c0-.0055.001-.0141.0051-.0237.0043-.0097.0101-.0167.0151-.0212.0046-.004.0076-.0052.0064-.0047-.0011.0005-.0046.002-.0117.0039zm-7.892 1.1954c2.294-1.4818 5.1756-1.9345 7.839-1.1955l.0535-.1928c-2.7188-.7543-5.6593-.2923-8.001 1.2203zm-.1542-10.12617v10.04217h.2v-10.04217zm8.0728-1.43248c-2.7486-.84181-5.7357-.33606-8.0321 1.35191l.1185.16114c2.2451-1.65029 5.1665-2.14523 7.855-1.32182zm-.1293.0917v.00391h.2v-.00391zm-16.50426.05082c0 .00971-.00291.01756-.00729.02392-.00389.00567-.01527.01885-.03783.02334l-.03904-.19615c-.0422.0084-.07126.03525-.08792.05949-.01715.02493-.02792.05623-.02792.0894zm-.02554-.06698-.00392-.00391-.14107.14178.00393.00391zm.02947 10.14431v-10.07342h-.2v10.07342zm-.01085-.0327c-.00469-.0044-.00102-.0015.00244.004.00205.0032.00429.0076.00596.013.00169.0054.00245.0108.00245.0157h-.2c0 .067.04336.1048.05193.1128zm.00363.0035-.00303-.0029-.13841.1444.00303.0029zm2.53936-.3757c-.88076 0-1.76966.1145-2.63498.3514l.05283.1929c.84754-.2321 1.71864-.3443 2.58215-.3443zm5.39709 1.5756c-1.6037-1.0348-3.48872-1.5756-5.39709-1.5756v.2c1.87093 0 3.71809.5303 5.28869 1.5437zm-.1542-9.96198v10.04608h.2v-10.04608zm-7.81432-1.24125c2.68854-.82341 5.60998-.32847 7.85502 1.32183l.1185-.16115c-2.29634-1.68797-5.28348-2.19372-8.03208-1.35191zm-1.89142 12.15343h.03928v-.2h-.03928zm-.12357-.1508c0 .041.0169.0728.02735.0893.00584.0092.01161.0166.01602.0218.00224.0027.00424.0049.00587.0067.00082.0009.00156.0016.00219.0023.00032.0003.00061.0006.00088.0009.00013.0001.00026.0003.00038.0004.00006 0 .00012.0001.00018.0002h.00008c.00002.0001.00004.0001.00004.0001.00002 0 .00004 0 .07058-.0709.07053-.0709.07055-.0708.07057-.0708h.00004c.00003.0001.00005.0001.00008.0001.00005.0001.0001.0001.00015.0002.0001.0001.00019.0001.00028.0002.00018.0002.00034.0004.00048.0005.00029.0003.00052.0006.0007.0008.00034.0003.0005.0005.00053.0006.00003 0-.00001 0-.00008-.0001s-.00011-.0002-.00011-.0002c.00001 0 .00004.0001.00009.0001.00005.0001.00014.0003.00025.0005.00021.0004.00061.0012.00105.0025.00083.0022.0024.0074.0024.0148zm0-10.4643v10.4643h.2v-10.4643zm.17071-.15472c-.03915 0-.08197.00972-.11687.03865-.03682.03054-.05384.07356-.05384.11607h.2c0 .00484-.00095.01158-.00428.01904-.0034.00763-.00847.01409-.01422.01885-.01132.00939-.01879.00739-.01079.00739zm.99394-.03902-.99785.03909.00782.19985.99786-.03909zm.10392 8.68404v-8.58411h-.2v8.58411zm.29326.5723c-.18716-.138-.29326-.3468-.29326-.5723h-.2c0 .2905.13746.5585.3746.7333zm.63225.1172c-.21679.0616-.44828.0175-.63251-.1174l-.11815.1614c.2322.17.52714.2275.80535.1484zm6.16943.478c-1.91447-.8616-4.1109-1.0474-6.16875-.4782l.05332.1928c2.01216-.5566 4.16073-.375 6.03338.4678zm-8.16753.9478c2.26953-.7968 5.39492-1.2315 8.10933-.7581l.0344-.197c-2.75419-.4804-5.91451-.0395-8.20998.7664zm.06687-.0905v-.0039h-.2v.0039zm20.17356-.0508c0-.0056.0016-.0128.0056-.0199.0037-.0066.009-.0122.0156-.0165l.1105.1667c.0369-.0245.0683-.0701.0683-.1303zm0-10.46039v10.46039h.2v-10.46039zm.045.04528c-.0098 0-.0217-.00397-.0312-.01348-.0096-.00953-.0138-.0216-.0138-.0318h.2c0-.08697-.0688-.15472-.155-.15472zm-1.0174-.03917 1.0136.03909.0077-.19985-1.0136-.03909zm.1038 8.48418v-8.5841h-.2v8.5841zm-.3746.7333c.2372-.1748.3746-.4428.3746-.7333h-.2c0 .2255-.1061.4344-.2932.5723zm-.8052.1487c.2819.0789.5727.0215.805-.1485l-.1182-.1614c-.1841.1349-.4119.1791-.6329.1173zm-6.033.4679c1.8726-.8428 4.0212-1.0244 6.0333-.4678l.0533-.1928c-2.0578-.5692-4.2542-.3834-6.1687.4782zm8.1514.5727c-2.2952-.798-5.4554-1.2428-8.2097-.7624l.0344.197c2.7143-.4734 5.8398-.0348 8.1096.7543zm.0064-.0056h-.0392v.2h.0392z"/></g></svg>

<svg width="24" height="16" viewBox="0 0 24 16" fill="none" xmlns="http://www.w3.org/2000/svg">
<path fill-rule="evenodd" clip-rule="evenodd" d="M22.1789 2.97783L21.1496 2.93874V2.21167C21.1496 1.85595 20.91 1.53542 20.5682 1.42988C17.6375 0.530813 14.4593 1.06243 12 2.8332C9.54071 1.06634 6.3625 0.534722 3.43179 1.43379C3.08607 1.53933 2.85036 1.85595 2.85036 2.21558V2.94265L1.83679 2.98174C1.37714 2.98174 1 3.34918 1 3.79871V14.263C1 14.5288 1.13357 14.7829 1.3575 14.9354C1.49893 15.0331 1.66393 15.08 1.82893 15.08C1.92321 15.08 2.0175 15.0644 2.10786 15.0331C4.8775 14.0637 8.96321 13.6376 11.8429 14.8689L12 14.9354L12.1571 14.8689C15.0368 13.6337 19.1225 14.0598 21.8882 15.0292C22.1396 15.1191 22.4225 15.0839 22.6425 14.9354C22.8664 14.7829 23 14.5327 23 14.263V3.7948C23 3.34527 22.6268 2.97783 22.1789 2.97783ZM20.3364 2.16085C20.3364 2.16085 20.3718 2.18822 20.3718 2.21167V12.2851C20.3718 12.3085 20.3561 12.3242 20.3129 12.3359C17.6218 11.5893 14.7107 12.0466 12.3929 13.5438V3.50163C14.6636 1.8325 17.6179 1.33215 20.3364 2.16476V2.16085ZM3.6675 2.16085C3.64786 2.16476 3.63214 2.18822 3.63214 2.21167L3.63607 2.21558V12.289C3.63607 12.3097 3.64834 12.3213 3.65661 12.3291L3.65964 12.332C4.51607 12.0975 5.39607 11.9841 6.26821 11.9841C8.15786 11.9841 10.0239 12.5196 11.6111 13.5438V3.49772C9.34036 1.82859 6.38607 1.32824 3.6675 2.16085ZM1.84464 14.3099H1.80536C1.80536 14.3099 1.78179 14.2865 1.78179 14.2591V3.7948C1.78179 3.76353 1.80536 3.74008 1.8525 3.74008L2.85036 3.70099V12.2851C2.85036 12.5431 2.97214 12.7815 3.18429 12.9379C3.3925 13.0903 3.65571 13.1412 3.90321 13.0708C5.93821 12.5079 8.11071 12.6916 10.0043 13.5438C7.27 13.0669 4.12714 13.5047 1.84464 14.306V14.3099ZM22.1946 14.306C22.2064 14.2982 22.2182 14.2826 22.2182 14.2591V3.79871C22.2182 3.76744 22.1946 3.74399 22.1632 3.74399L21.1496 3.7049V12.289C21.1496 12.547 21.0279 12.7854 20.8157 12.9418C20.6075 13.0942 20.3482 13.1451 20.0968 13.0747C18.0618 12.5118 15.8893 12.6955 13.9957 13.5477C16.73 13.0708 19.8729 13.5125 22.1554 14.306H22.1946Z" fill="white"/>
<path d="M21.1496 2.93874H21.0496V3.03501L21.1458 3.03867L21.1496 2.93874ZM22.1789 2.97783L22.1751 3.07783H22.1789V2.97783ZM20.5682 1.42988L20.5977 1.33433L20.5975 1.33427L20.5682 1.42988ZM12 2.8332L11.9417 2.91441L12.0001 2.95638L12.0584 2.91435L12 2.8332ZM3.43179 1.43379L3.46098 1.52943L3.46111 1.52939L3.43179 1.43379ZM2.85036 2.94265L2.85421 3.04257L2.95036 3.03887V2.94265H2.85036ZM1.83679 2.98174V3.08181L1.84064 3.08166L1.83679 2.98174ZM1.3575 14.9354L1.41435 14.8531L1.41378 14.8527L1.3575 14.9354ZM2.10786 15.0331L2.14056 15.1276L2.14089 15.1275L2.10786 15.0331ZM11.8429 14.8689L11.8035 14.9609L11.8039 14.961L11.8429 14.8689ZM12 14.9354L11.9611 15.0275L12 15.0439L12.0389 15.0275L12 14.9354ZM12.1571 14.8689L12.1961 14.961L12.1966 14.9608L12.1571 14.8689ZM21.8882 15.0292L21.9219 14.935L21.9213 14.9348L21.8882 15.0292ZM22.6425 14.9354L22.6985 15.0182L22.6988 15.018L22.6425 14.9354ZM20.3364 2.16085L20.3976 2.08177L20.2364 1.95701V2.16085H20.3364ZM20.3129 12.3359L20.2861 12.4323L20.3126 12.4396L20.3391 12.4324L20.3129 12.3359ZM12.3929 13.5438H12.2929V13.7274L12.4471 13.6278L12.3929 13.5438ZM12.3929 3.50163L12.3336 3.42106L12.2929 3.45103V3.50163H12.3929ZM20.3364 2.16476L20.3071 2.26038L20.4364 2.29997V2.16476H20.3364ZM3.63214 2.21167H3.53214V2.25324L3.56161 2.28256L3.63214 2.21167ZM3.6675 2.16085L3.68712 2.25943L3.69678 2.25647L3.6675 2.16085ZM3.63607 2.21558H3.73607V2.17401L3.7066 2.14469L3.63607 2.21558ZM3.65661 12.3291L3.72582 12.2569L3.72522 12.2563L3.65661 12.3291ZM3.65964 12.332L3.59044 12.4042L3.63137 12.4434L3.68606 12.4284L3.65964 12.332ZM11.6111 13.5438L11.5569 13.6278L11.7111 13.7273V13.5438H11.6111ZM11.6111 3.49772H11.7111V3.44712L11.6703 3.41715L11.6111 3.49772ZM1.80536 14.3099L1.73482 14.3808L1.76408 14.4099H1.80536V14.3099ZM1.84464 14.3099V14.4099H1.94464V14.3099H1.84464ZM1.8525 3.74008V3.84015L1.85641 3.84L1.8525 3.74008ZM2.85036 3.70099H2.95036V3.59699L2.84644 3.60106L2.85036 3.70099ZM3.18429 12.9379L3.12495 13.0184L3.12521 13.0186L3.18429 12.9379ZM3.90321 13.0708L3.87655 12.9744L3.87587 12.9746L3.90321 13.0708ZM10.0043 13.5438L9.9871 13.6423L10.0453 13.4526L10.0043 13.5438ZM1.84464 14.306L1.81152 14.2117L1.74464 14.2351V14.306H1.84464ZM22.1946 14.306V14.406H22.2248L22.2499 14.3894L22.1946 14.306ZM22.1632 3.74399L22.1594 3.84399H22.1632V3.74399ZM21.1496 3.7049L21.1535 3.60497L21.0496 3.60097V3.7049H21.1496ZM20.8157 12.9418L20.8748 13.0225L20.875 13.0223L20.8157 12.9418ZM20.0968 13.0747L20.1237 12.9784L20.1234 12.9783L20.0968 13.0747ZM13.9957 13.5477L13.9547 13.4565L14.0129 13.6462L13.9957 13.5477ZM22.1554 14.306L22.1225 14.4005L22.1385 14.406H22.1554V14.306ZM21.1458 3.03867L22.1751 3.07776L22.1827 2.8779L21.1534 2.83881L21.1458 3.03867ZM21.0496 2.21167V2.93874H21.2496V2.21167H21.0496ZM20.5387 1.52542C20.8393 1.61825 21.0496 1.90057 21.0496 2.21167H21.2496C21.2496 1.81134 20.9807 1.45259 20.5977 1.33433L20.5387 1.52542ZM12.0584 2.91435C14.4923 1.16186 17.6381 0.635592 20.5389 1.52548L20.5975 1.33427C17.6369 0.426034 14.4262 0.96301 11.9416 2.75204L12.0584 2.91435ZM3.46111 1.52939C6.36192 0.639499 9.50771 1.16576 11.9417 2.91441L12.0583 2.75198C9.57372 0.966923 6.36308 0.429945 3.40246 1.33818L3.46111 1.52939ZM2.95036 2.21558C2.95036 1.90033 3.15696 1.62224 3.46098 1.52943L3.40259 1.33814C3.01518 1.45641 2.75036 1.81158 2.75036 2.21558H2.95036ZM2.95036 2.94265V2.21558H2.75036V2.94265H2.95036ZM1.84064 3.08166L2.85421 3.04257L2.8465 2.84272L1.83293 2.88181L1.84064 3.08166ZM1.1 3.79871C1.1 3.40671 1.43004 3.08174 1.83679 3.08174V2.88174C1.32425 2.88174 0.9 3.29165 0.9 3.79871H1.1ZM1.1 14.263V3.79871H0.9V14.263H1.1ZM1.41378 14.8527C1.21709 14.7188 1.1 14.4956 1.1 14.263H0.9C0.9 14.5621 1.05005 14.847 1.30122 15.018L1.41378 14.8527ZM1.82893 14.98C1.68282 14.98 1.53794 14.9385 1.41435 14.8531L1.30065 15.0176C1.45992 15.1277 1.64504 15.18 1.82893 15.18V14.98ZM2.07515 14.9386C1.99539 14.9662 1.91216 14.98 1.82893 14.98V15.18C1.93427 15.18 2.03961 15.1625 2.14056 15.1276L2.07515 14.9386ZM11.8822 14.777C10.4241 14.1535 8.66649 13.9516 6.92984 14.0258C5.19243 14.1 3.4689 14.4508 2.07482 14.9387L2.14089 15.1275C3.51646 14.646 5.22061 14.299 6.93837 14.2256C8.6569 14.1522 10.382 14.353 11.8035 14.9609L11.8822 14.777ZM12.0389 14.8433L11.8818 14.7768L11.8039 14.961L11.9611 15.0275L12.0389 14.8433ZM12.1182 14.7768L11.9611 14.8433L12.0389 15.0275L12.1961 14.961L12.1182 14.7768ZM21.9213 14.9348C20.5292 14.4468 18.8066 14.0961 17.0696 14.0224C15.3335 13.9487 13.5759 14.1515 12.1177 14.777L12.1966 14.9608C13.6181 14.3511 15.3431 14.1493 17.0612 14.2222C18.7784 14.2951 20.4816 14.6421 21.8551 15.1236L21.9213 14.9348ZM22.5865 14.8525C22.3931 14.9831 22.1436 15.0143 21.9219 14.935L21.8545 15.1233C22.1357 15.2239 22.4519 15.1847 22.6985 15.0182L22.5865 14.8525ZM22.9 14.263C22.9 14.4993 22.7831 14.7187 22.5862 14.8527L22.6988 15.018C22.9497 14.8472 23.1 14.5662 23.1 14.263H22.9ZM22.9 3.7948V14.263H23.1V3.7948H22.9ZM22.1789 3.07783C22.5723 3.07783 22.9 3.40128 22.9 3.7948H23.1C23.1 3.28926 22.6812 2.87783 22.1789 2.87783V3.07783ZM20.4718 2.21167C20.4718 2.18175 20.461 2.15818 20.4533 2.14462C20.4451 2.13013 20.4356 2.11845 20.4283 2.11039C20.4207 2.102 20.4134 2.09521 20.4082 2.09059C20.4055 2.08822 20.4032 2.08627 20.4014 2.0848C20.4005 2.08406 20.3997 2.08343 20.3991 2.08293C20.3988 2.08268 20.3985 2.08245 20.3983 2.08226C20.3981 2.08216 20.398 2.08207 20.3979 2.08199C20.3979 2.08195 20.3978 2.08191 20.3978 2.08188C20.3977 2.08186 20.3977 2.08184 20.3977 2.08182C20.3977 2.08181 20.3977 2.0818 20.3977 2.0818C20.3976 2.08178 20.3976 2.08177 20.3364 2.16085C20.2752 2.23994 20.2752 2.23992 20.2752 2.23991C20.2752 2.23991 20.2752 2.2399 20.2752 2.23989C20.2751 2.23987 20.2751 2.23986 20.2751 2.23984C20.2751 2.23981 20.275 2.23978 20.275 2.23976C20.2749 2.2397 20.2749 2.23965 20.2748 2.23961C20.2747 2.23952 20.2746 2.23945 20.2745 2.23941C20.2744 2.23931 20.2744 2.2393 20.2745 2.23935C20.2746 2.23947 20.2751 2.23984 20.2757 2.2404C20.2771 2.24165 20.2787 2.24316 20.2799 2.24455C20.2815 2.24626 20.2808 2.24582 20.2792 2.24305C20.2782 2.24121 20.2718 2.22986 20.2718 2.21167H20.4718ZM20.4718 12.2851V2.21167H20.2718V12.2851H20.4718ZM20.3391 12.4324C20.366 12.4251 20.3985 12.4132 20.425 12.3896C20.457 12.3611 20.4718 12.3236 20.4718 12.2851H20.2718C20.2718 12.2796 20.2728 12.271 20.2769 12.2614C20.2812 12.2517 20.287 12.2447 20.292 12.2402C20.2966 12.2362 20.2996 12.235 20.2984 12.2355C20.2973 12.236 20.2938 12.2375 20.2867 12.2394L20.3391 12.4324ZM12.4471 13.6278C14.7411 12.146 17.6227 11.6933 20.2861 12.4323L20.3396 12.2395C17.6208 11.4852 14.6803 11.9472 12.3386 13.4598L12.4471 13.6278ZM12.2929 3.50163V13.5438H12.4929V3.50163H12.2929ZM20.3657 2.06915C17.6171 1.22734 14.63 1.73309 12.3336 3.42106L12.4521 3.5822C14.6972 1.93191 17.6186 1.43697 20.3071 2.26038L20.3657 2.06915ZM20.2364 2.16085V2.16476H20.4364V2.16085H20.2364ZM3.73214 2.21167C3.73214 2.22138 3.72923 2.22923 3.72485 2.23559C3.72096 2.24126 3.70958 2.25444 3.68702 2.25893L3.64798 2.06278C3.60578 2.07118 3.57672 2.09803 3.56006 2.12227C3.54291 2.1472 3.53214 2.1785 3.53214 2.21167H3.73214ZM3.7066 2.14469L3.70268 2.14078L3.56161 2.28256L3.56554 2.28647L3.7066 2.14469ZM3.73607 12.289V2.21558H3.53607V12.289H3.73607ZM3.72522 12.2563C3.72053 12.2519 3.7242 12.2548 3.72766 12.2603C3.72971 12.2635 3.73195 12.2679 3.73362 12.2733C3.73531 12.2787 3.73607 12.2841 3.73607 12.289H3.53607C3.53607 12.356 3.57943 12.3938 3.588 12.4018L3.72522 12.2563ZM3.72885 12.2598L3.72582 12.2569L3.58741 12.4013L3.59044 12.4042L3.72885 12.2598ZM6.26821 11.8841C5.38745 11.8841 4.49855 11.9986 3.63323 12.2355L3.68606 12.4284C4.5336 12.1963 5.4047 12.0841 6.26821 12.0841V11.8841ZM11.6653 13.4597C10.0616 12.4249 8.17658 11.8841 6.26821 11.8841V12.0841C8.13914 12.0841 9.9863 12.6144 11.5569 13.6278L11.6653 13.4597ZM11.5111 3.49772V13.5438H11.7111V3.49772H11.5111ZM3.69678 2.25647C6.38532 1.43306 9.30676 1.928 11.5518 3.5783L11.6703 3.41715C9.37396 1.72918 6.38682 1.22343 3.63822 2.06524L3.69678 2.25647ZM1.80536 14.4099H1.84464V14.2099H1.80536V14.4099ZM1.68179 14.2591C1.68179 14.3001 1.69869 14.3319 1.70914 14.3484C1.71498 14.3576 1.72075 14.365 1.72516 14.3702C1.7274 14.3729 1.7294 14.3751 1.73103 14.3769C1.73185 14.3778 1.73259 14.3785 1.73322 14.3792C1.73354 14.3795 1.73383 14.3798 1.7341 14.3801C1.73423 14.3802 1.73436 14.3804 1.73448 14.3805C1.73454 14.3805 1.7346 14.3806 1.73466 14.3807C1.73469 14.3807 1.73471 14.3807 1.73474 14.3807C1.73476 14.3808 1.73478 14.3808 1.73478 14.3808C1.7348 14.3808 1.73482 14.3808 1.80536 14.3099C1.87589 14.239 1.87591 14.2391 1.87593 14.2391C1.87594 14.2391 1.87596 14.2391 1.87597 14.2391C1.876 14.2392 1.87602 14.2392 1.87605 14.2392C1.8761 14.2393 1.87615 14.2393 1.8762 14.2394C1.8763 14.2395 1.87639 14.2395 1.87648 14.2396C1.87666 14.2398 1.87682 14.24 1.87696 14.2401C1.87725 14.2404 1.87748 14.2407 1.87766 14.2409C1.878 14.2412 1.87816 14.2414 1.87819 14.2415C1.87822 14.2415 1.87818 14.2415 1.87811 14.2414C1.87804 14.2413 1.878 14.2412 1.878 14.2412C1.87801 14.2412 1.87804 14.2413 1.87809 14.2413C1.87814 14.2414 1.87823 14.2416 1.87834 14.2418C1.87855 14.2422 1.87895 14.243 1.87939 14.2443C1.88022 14.2465 1.88179 14.2517 1.88179 14.2591H1.68179ZM1.68179 3.7948V14.2591H1.88179V3.7948H1.68179ZM1.8525 3.64008C1.81335 3.64008 1.77053 3.6498 1.73563 3.67873C1.69881 3.70927 1.68179 3.75229 1.68179 3.7948H1.88179C1.88179 3.79964 1.88084 3.80638 1.87751 3.81384C1.87411 3.82147 1.86904 3.82793 1.86329 3.83269C1.85197 3.84208 1.8445 3.84008 1.8525 3.84008V3.64008ZM2.84644 3.60106L1.84859 3.64015L1.85641 3.84L2.85427 3.80091L2.84644 3.60106ZM2.95036 12.2851V3.70099H2.75036V12.2851H2.95036ZM3.24362 12.8574C3.05646 12.7194 2.95036 12.5106 2.95036 12.2851H2.75036C2.75036 12.5756 2.88782 12.8436 3.12496 13.0184L3.24362 12.8574ZM3.87587 12.9746C3.65908 13.0362 3.42759 12.9921 3.24336 12.8572L3.12521 13.0186C3.35741 13.1886 3.65235 13.2461 3.93056 13.167L3.87587 12.9746ZM10.0453 13.4526C8.13083 12.591 5.9344 12.4052 3.87655 12.9744L3.92987 13.1672C5.94203 12.6106 8.0906 12.7922 9.96325 13.635L10.0453 13.4526ZM1.87777 14.4004C4.1473 13.6036 7.27269 13.1689 9.9871 13.6423L10.0215 13.4453C7.26731 12.9649 4.10699 13.4058 1.81152 14.2117L1.87777 14.4004ZM1.94464 14.3099V14.306H1.74464V14.3099H1.94464ZM22.1182 14.2591C22.1182 14.2535 22.1198 14.2463 22.1238 14.2392C22.1275 14.2326 22.1328 14.227 22.1394 14.2227L22.2499 14.3894C22.2868 14.3649 22.3182 14.3193 22.3182 14.2591H22.1182ZM22.1182 3.79871V14.2591H22.3182V3.79871H22.1182ZM22.1632 3.84399C22.1534 3.84399 22.1415 3.84002 22.132 3.83051C22.1224 3.82098 22.1182 3.80891 22.1182 3.79871H22.3182C22.3182 3.71174 22.2494 3.64399 22.1632 3.64399V3.84399ZM21.1458 3.80482L22.1594 3.84391L22.1671 3.64406L21.1535 3.60497L21.1458 3.80482ZM21.2496 12.289V3.7049H21.0496V12.289H21.2496ZM20.875 13.0223C21.1122 12.8475 21.2496 12.5795 21.2496 12.289H21.0496C21.0496 12.5145 20.9435 12.7234 20.7564 12.8613L20.875 13.0223ZM20.0698 13.171C20.3517 13.2499 20.6425 13.1925 20.8748 13.0225L20.7566 12.8611C20.5725 12.996 20.3447 13.0402 20.1237 12.9784L20.0698 13.171ZM14.0368 13.6389C15.9094 12.7961 18.058 12.6145 20.0701 13.1711L20.1234 12.9783C18.0656 12.4091 15.8692 12.5949 13.9547 13.4565L14.0368 13.6389ZM22.1882 14.2116C19.893 13.4136 16.7328 12.9688 13.9785 13.4492L14.0129 13.6462C16.7272 13.1728 19.8527 13.6114 22.1225 14.4005L22.1882 14.2116ZM22.1946 14.206H22.1554V14.406H22.1946V14.206Z" fill="white"/>
</svg>
